brandFactory_export/2.Regular/Ajustes_2Regular.svg

<?xml version="1.0" encoding="UTF-8"?>
<svg width="24px" height="24px" viewBox="0 0 24 24" version="1.1" xmlns="http://www.w3.org/2000/svg" xmlns:xlink="http://www.w3.org/1999/xlink">
    <title>2.Regular/Ajustes_2Regular</title>
    <g id="Symbols" stroke="none" stroke-width="1" fill="none" fill-rule="evenodd">
        <g id="2.Regular/Ajustes_2Regular" fill="#5CB615" fill-rule="nonzero">
            <path d="M12.712605,0.0100840336 C13.3613445,0.0100840336 13.8890756,0.537815126 13.8890756,1.18655462 L13.8890756,3.41176471 C14.8302521,3.56302521 15.6369748,3.81176471 16.4201681,4.19495798 L18.0638655,2.5512605 C18.5310924,2.08739496 19.2840336,2.08739496 19.7512605,2.5512605 L21.0689076,3.86890756 C21.5327731,4.33613445 21.5327731,5.08907563 21.0689076,5.55630252 L19.4285714,7.2 C19.7983193,7.94285714 20.0605042,8.79327731 20.2117647,9.73109244 L22.4369748,9.73109244 C23.0857143,9.73109244 23.6134454,10.2588235 23.6134454,10.907563 L23.6134454,12.712605 C23.6134454,13.3613445 23.0857143,13.8890756 22.4369748,13.8890756 L20.2117647,13.8890756 C20.0605042,14.8268908 19.7983193,15.6773109 19.4285714,16.4201681 L21.0722689,18.0638655 C21.5361345,18.5310924 21.5361345,19.2840336 21.0722689,19.7512605 L19.7546218,21.0689076 C19.287395,21.5327731 18.5344538,21.5327731 18.0672269,21.0689076 L16.4201681,19.4252101 C15.6369748,19.8084034 14.8302521,20.0571429 13.8890756,20.2084034 L13.8890756,22.4336134 C13.8890756,23.0857143 13.3647059,23.610084 12.712605,23.610084 L10.907563,23.610084 C10.2588235,23.610084 9.73109244,23.0823529 9.73109244,22.4336134 L9.73109244,20.2084034 C8.79327731,20.0571429 7.94285714,19.794958 7.2,19.4252101 L5.55630252,21.0689076 C5.08907563,21.5327731 4.33613445,21.5327731 3.86890756,21.0689076 L2.5512605,19.7478992 C2.08739496,19.2806723 2.08739496,18.5277311 2.5512605,18.0605042 L4.19159664,16.4201681 C3.81176471,15.7478992 3.5394958,14.6621849 3.41176471,13.8857143 L1.18655462,13.8857143 C0.537815126,13.8857143 0.0100840339,13.3579832 0.0100840339,12.7092437 L0.0100840339,10.9042017 C0.0100840339,10.2554622 0.537815126,9.72773109 1.18655462,9.72773109 L3.41176471,9.72773109 C3.5394958,8.94789916 3.81176471,7.86554622 4.19159664,7.19327731 L2.5512605,5.55294118 C2.08739496,5.08571429 2.08739496,4.33277311 2.5512605,3.86554622 L3.86890756,2.54789916 C4.33613445,2.08403361 5.08907563,2.08403361 5.55630252,2.54789916 L7.2,4.19159664 C7.94285714,3.82184874 8.79327731,3.55966387 9.73109244,3.40840336 L9.73109244,1.18655462 C9.73109244,0.537815126 10.2588235,0.0100840336 10.907563,0.0100840336 L12.712605,0.0100840336 Z M12.5445378,1.35462185 L11.0756303,1.35462185 L11.0756303,3.54285714 C11.0756303,4.13445378 10.6252101,4.63529412 10.0033613,4.72941176 C9.15966387,4.8605042 8.40672269,5.08907563 7.76470588,5.41512605 C7.27394958,5.67058824 6.69579832,5.58991597 6.32605042,5.22016807 L6.31596639,5.21008403 L4.71260504,3.60672269 L3.60672269,4.71260504 L5.21008403,6.31596639 L5.22016807,6.32605042 C5.6605042,6.76638655 5.63697479,7.40840336 5.38823529,7.81176471 C5.14285714,8.21176471 4.86386555,9.13613445 4.72941177,10.0067227 C4.63529412,10.6151261 4.12436975,11.0756303 3.54285714,11.0756303 L1.35462185,11.0756303 L1.35462185,12.5445378 L3.54285714,12.5445378 C4.12436975,12.5445378 4.63529412,13.005042 4.72941177,13.6134454 C4.86386555,14.4840336 5.14285714,15.4084034 5.38823529,15.8084034 C5.63697479,16.2151261 5.6605042,16.8537815 5.22016807,17.2941176 L5.21008403,17.3042017 L3.60672269,18.907563 L4.71260504,20.0134454 L6.31596639,18.410084 L6.32605042,18.4 C6.69579832,18.0302521 7.27394958,17.9529412 7.76470588,18.205042 C8.41008403,18.5310924 9.16302521,18.7596639 10.0067227,18.8907563 C10.6285714,18.9848739 11.0789916,19.4857143 11.0789916,20.0773109 L11.0756303,22.2655462 L12.5445378,22.2655462 L12.5445378,20.0773109 C12.5445378,19.4857143 12.994958,18.9848739 13.6168067,18.8907563 L13.6201681,18.8907563 C14.4672269,18.7596639 15.1798319,18.5411765 15.8655462,18.2016807 C16.3663866,17.9529412 16.9277311,18.0302521 17.297479,18.4 L17.307563,18.410084 L18.9109244,20.0134454 L20.0168067,18.907563 L18.4033613,17.2941176 C18.0336134,16.9243697 17.9563025,16.3462185 18.2084034,15.8554622 C18.5344538,15.210084 18.7630252,14.4571429 18.8941176,13.6134454 C18.9882353,12.9915966 19.4890756,12.5411765 20.0806723,12.5411765 L22.2689076,12.5411765 L22.2689076,11.0722689 L20.0806723,11.0722689 C19.4890756,11.0722689 18.9882353,10.6218487 18.8941176,10 C18.7630252,9.15630252 18.5344538,8.40336134 18.2084034,7.76134454 C17.9563025,7.27058824 18.0336134,6.69243697 18.4033613,6.32268908 L20.0168067,4.7092437 L18.9109244,3.60336134 L17.307563,5.21008403 L17.297479,5.22016807 C16.9277311,5.58991597 16.3663866,5.66722689 15.8655462,5.41848739 C15.1798319,5.0789916 14.4672269,4.8605042 13.6201681,4.72941176 L13.6168067,4.72941176 C12.994958,4.63529412 12.5445378,4.13445378 12.5445378,3.54285714 L12.5445378,1.35462185 Z M11.8117647,7.18991597 C14.7932773,7.18991597 16.4336134,8.8302521 16.4336134,11.8117647 C16.4336134,14.7932773 14.789916,16.4336134 11.8117647,16.4336134 C8.8302521,16.4336134 7.18991597,14.7932773 7.18991597,11.8117647 C7.18991597,8.8302521 8.8302521,7.18991597 11.8117647,7.18991597 Z M11.8117647,8.53445378 C9.57647059,8.53445378 8.53445378,9.57647059 8.53445378,11.8117647 C8.53445378,14.0470588 9.57647059,15.0890756 11.8117647,15.0890756 C14.0470588,15.0890756 15.0890756,14.0470588 15.0890756,11.8117647 C15.0890756,9.57647059 14.0470588,8.53445378 11.8117647,8.53445378 Z" id="Ajustes_2Regular"></path>
        </g>
    </g>
</svg>

<svg width="24" height="24" viewBox="0 0 24 24" xmlns="http://www.w3.org/2000/svg"><path d="M12.713.01c.648 0 1.176.528 1.176 1.177v2.225c.941.151 1.748.4 2.531.783l1.644-1.644a1.197 1.197 0 011.687 0L21.07 3.87c.464.467.464 1.22 0 1.687L19.429 7.2c.37.743.632 1.593.783 2.531h2.225c.649 0 1.176.528 1.176 1.177v1.805c0 .648-.527 1.176-1.176 1.176h-2.225c-.151.938-.414 1.788-.783 2.531l1.643 1.644c.464.467.464 1.22 0 1.687l-1.317 1.318a1.197 1.197 0 01-1.688 0l-1.647-1.644a8.768 8.768 0 01-2.53.783v2.226c0 .652-.525 1.176-1.177 1.176h-1.805a1.178 1.178 0 01-1.177-1.176v-2.226c-.938-.15-1.788-.413-2.531-.783L5.556 21.07a1.197 1.197 0 01-1.687 0L2.55 19.748a1.197 1.197 0 010-1.687l1.64-1.64c-.38-.673-.652-1.759-.78-2.535H1.188A1.178 1.178 0 01.01 12.709v-1.805c0-.649.528-1.176 1.177-1.176h2.225c.127-.78.4-1.862.78-2.535l-1.64-1.64a1.197 1.197 0 010-1.687l1.317-1.318a1.197 1.197 0 011.687 0L7.2 4.192c.743-.37 1.593-.632 2.531-.784V1.187c0-.65.528-1.177 1.177-1.177h1.805zm-.168 1.345h-1.47v2.188c0 .591-.45 1.092-1.072 1.186-.843.132-1.596.36-2.238.686-.491.256-1.07.175-1.439-.195l-.01-.01-1.603-1.603-1.106 1.106L5.21 6.316l.01.01c.44.44.417 1.082.168 1.486-.245.4-.524 1.324-.659 2.195-.094.608-.605 1.069-1.186 1.069H1.355v1.469h2.188c.581 0 1.092.46 1.186 1.068.135.871.414 1.795.66 2.195.248.407.272 1.046-.169 1.486l-.01.01-1.603 1.604 1.106 1.105 1.603-1.603.01-.01c.37-.37.948-.447 1.439-.195.645.326 1.398.555 2.242.686.622.094 1.072.595 1.072 1.186l-.003 2.189h1.469v-2.189c0-.591.45-1.092 1.072-1.186h.003c.847-.131 1.56-.35 2.246-.69.5-.248 1.062-.17 1.431.199l.01.01 1.604 1.603 1.106-1.105-1.614-1.614c-.37-.37-.447-.948-.195-1.439.326-.645.555-1.398.686-2.242.094-.621.595-1.072 1.187-1.072h2.188v-1.469H20.08c-.592 0-1.093-.45-1.187-1.072-.131-.844-.36-1.597-.686-2.239-.252-.49-.174-1.069.195-1.438l1.614-1.614-1.106-1.106-1.603 1.607-.01.01c-.37.37-.932.447-1.432.198-.686-.339-1.399-.557-2.246-.689h-.003c-.622-.094-1.072-.595-1.072-1.186V1.355zm-.733 5.835c2.981 0 4.622 1.64 4.622 4.622 0 2.981-1.644 4.622-4.622 4.622-2.982 0-4.622-1.64-4.622-4.622S8.83 7.19 11.812 7.19zm0 1.344c-2.236 0-3.278 1.042-3.278 3.278 0 2.235 1.042 3.277 3.278 3.277 2.235 0 3.277-1.042 3.277-3.277 0-2.236-1.042-3.278-3.277-3.278z" fill="#5CB615" fill-rule="nonzero"/></svg>
